X:19250
T:Yung Collins Stole my Hart away
M:2/2
L:1/8
K:D
A2|defg a3 f|g2 ag f3 a|g2 e2 f2 d2|gedc d2:|:ef|A3 A B3 B|c2 Ac d3 e|f2
d2g2e2|a2g2a3a|a2f2f2a2|g2e2e3f|gfba gfed|fedc d2:|
